Hatter-kde/actions/22/torrents.svg

<svg xmlns="http://www.w3.org/2000/svg" viewBox="0 0 22 22">
    <defs id="defs3051">
        <style type="text/css" id="current-color-scheme">
            .ColorScheme-Text {
            color:#363636;
            }
        </style>
    </defs>
  <path
      style="fill:currentColor;fill-opacity:1;stroke:none"
      d="M 11 3 C 6.5876444 3 3 6.5876444 3 11 C 3 15.412356 6.5876444 19 11 19 C 15.412356 19 19 15.412356 19 11 C 19 6.5876444 15.412356 3 11 3 z M 11 4 C 14.871916 4 18 7.1280844 18 11 C 18 14.871916 14.871916 18 11 18 C 7.1280844 18 4 14.871916 4 11 C 4 7.1280844 7.1280844 4 11 4 z M 9.484375 6 A 0.50005 0.50005 0 0 0 9.0839844 6.2226562 L 7.0839844 9.2226562 A 0.50005 0.50005 0 1 0 7.9160156 9.7773438 L 9 8.1523438 L 9 14 A 0.50005 0.50005 0 1 0 10 14 L 10 6.5 A 0.50005 0.50005 0 0 0 9.484375 6 z M 12.492188 7.4921875 A 0.50005 0.50005 0 0 0 12 8 L 12 15.5 A 0.50005 0.50005 0 0 0 12.916016 15.777344 L 14.916016 12.777344 A 0.50005 0.50005 0 1 0 14.083984 12.222656 L 13 13.847656 L 13 8 A 0.50005 0.50005 0 0 0 12.492188 7.4921875 z "
      class="ColorScheme-Text" />
</svg>

<?xml version="1.0" encoding="UTF-8"?>
<svg viewBox="0 0 22 22" xmlns="http://www.w3.org/2000/svg">
 <defs id="defs3051">
  <style id="current-color-scheme" type="text/css">.ColorScheme-Text {
            color:#363636;
            }</style>
 </defs>
 <path class="ColorScheme-Text" d="m11 3c-4.4124 0-8 3.5876-8 8 0 4.4124 3.5876 8 8 8 4.4124 0 8-3.5876 8-8 0-4.4124-3.5876-8-8-8zm0 1c3.8719 0 7 3.1281 7 7 0 3.8719-3.1281 7-7 7-3.8719 0-7-3.1281-7-7 0-3.8719 3.1281-7 7-7zm-1.5156 2a0.50005 0.50005 0 0 0-0.40039 0.22266l-2 3a0.50005 0.50005 0 1 0 0.83203 0.55469l1.084-1.625v5.8477a0.50005 0.50005 0 1 0 1 0v-7.5a0.50005 0.50005 0 0 0-0.51562-0.5zm3.0078 1.4922a0.50005 0.50005 0 0 0-0.49219 0.50781v7.5a0.50005 0.50005 0 0 0 0.91602 0.27734l2-3a0.50005 0.50005 0 1 0-0.83203-0.55469l-1.084 1.625v-5.8477a0.50005 0.50005 0 0 0-0.50781-0.50781z" fill="currentColor"/>
</svg>
